resources/icons/setup_btn_hover.svg

<svg height="20" viewBox="0 0 40 20" width="40" xmlns="http://www.w3.org/2000/svg"><g fill="none" fill-rule="evenodd" transform=""><rect fill="#141416" height="20" opacity=".6" rx="10" width="40"/><path d="m14 12h12v2h-12zm2-1h2v4h-2zm-2-5h12v2h-12zm8-1h2v4h-2z" fill="#fff"/></g></svg>

<?xml version="1.0" encoding="UTF-8" standalone="no"?>
<svg width="40px" height="20px" viewBox="0 0 40 20" version="1.1" xmlns="http://www.w3.org/2000/svg" xmlns:xlink="http://www.w3.org/1999/xlink">
    <!-- Generator: Sketch 3.8.3 (29802) - http://www.bohemiancoding.com/sketch -->
    <title>Group 2</title>
    <desc>Created with Sketch.</desc>
    <defs></defs>
    <g id="main" stroke="none" stroke-width="1" fill="none" fill-rule="evenodd">
        <g id="states-HD" transform="translate(-1839.000000, -950.000000)">
            <g id="Group-2" transform="translate(1839.000000, 950.000000)">
                <rect id="Rectangle_2_copy_124-2-Copy-2" fill="#141416" opacity="0.6" x="0" y="0" width="40" height="20" rx="10"></rect>
                <path d="M14,12 L26,12 L26,14 L14,14 L14,12 L14,12 Z M16,11 L18,11 L18,15 L16,15 L16,11 L16,11 Z M14,6 L26,6 L26,8 L14,8 L14,6 L14,6 Z M22,5 L24,5 L24,9 L22,9 L22,5 L22,5 Z" id="Rectangle_2_copy_22-2-Copy-2" fill="#FFFFFF"></path>
            </g>
        </g>
    </g>
</svg>
